Numix-Light/16/status/indicator-keyboard-Ie-1.svg

<?xml version="1.0" encoding="UTF-8" standalone="no"?>
<svg
   xmlns:dc="http://purl.org/dc/elements/1.1/"
   xmlns:cc="http://creativecommons.org/ns#"
   xmlns:rdf="http://www.w3.org/1999/02/22-rdf-syntax-ns#"
   xmlns:svg="http://www.w3.org/2000/svg"
   xmlns="http://www.w3.org/2000/svg"
   xmlns:sodipodi="http://sodipodi.sourceforge.net/DTD/sodipodi-0.dtd"
   xmlns:inkscape="http://www.inkscape.org/namespaces/inkscape"
   viewBox="0 0 16 16"
   id="svg2"
   version="1.1"
   inkscape:version="0.91 r13725"
   sodipodi:docname="indicator-keyboard-Ie-1.svg">
  <metadata
     id="metadata14">
    <rdf:RDF>
      <cc:Work
         rdf:about="">
        <dc:format>image/svg+xml</dc:format>
        <dc:type
           rdf:resource="http://purl.org/dc/dcmitype/StillImage" />
      </cc:Work>
    </rdf:RDF>
  </metadata>
  <defs
     id="defs12" />
  <sodipodi:namedview
     pagecolor="#ffffff"
     bordercolor="#666666"
     borderopacity="1"
     objecttolerance="10"
     gridtolerance="10"
     guidetolerance="10"
     inkscape:pageopacity="0"
     inkscape:pageshadow="2"
     inkscape:window-width="640"
     inkscape:window-height="480"
     id="namedview10"
     showgrid="false"
     inkscape:zoom="14.75"
     inkscape:cx="8"
     inkscape:cy="8"
     inkscape:window-x="65"
     inkscape:window-y="24"
     inkscape:window-maximized="0"
     inkscape:current-layer="svg2" />
  <path
     style="fill:#353535;fill-opacity:1"
     d="M 1.5996094 0 C 0.71320937 2.9605947e-16 0 0.71320937 0 1.5996094 L 0 14.400391 C 2.9605947e-16 15.286791 0.71320937 16 1.5996094 16 L 14.400391 16 C 15.286791 16 16 15.286791 16 14.400391 L 16 1.5996094 C 16 0.71320937 15.286791 0 14.400391 0 L 1.5996094 0 z M 3.7871094 4.859375 L 4.3984375 4.859375 L 4.3984375 11.095703 L 3.7871094 11.095703 L 3.7871094 4.859375 z M 7.7382812 6.3359375 C 8.3082813 6.3359375 8.7616562 6.5205781 9.0976562 6.8925781 C 9.4396563 7.2645781 9.609375 7.8373281 9.609375 8.6113281 C 9.609375 8.6593281 9.6075625 8.7078594 9.6015625 8.7558594 C 9.6015625 8.8038594 9.5977969 8.848625 9.5917969 8.890625 L 6.3242188 8.890625 C 6.3422187 9.460625 6.4840469 9.8990779 6.7480469 10.205078 C 7.0120469 10.511078 7.4318125 10.664062 8.0078125 10.664062 C 8.3258125 10.664062 8.5776719 10.634219 8.7636719 10.574219 C 8.9496719 10.514219 9.0859219 10.463875 9.1699219 10.421875 L 9.2773438 10.925781 C 9.1933438 10.973781 9.0347812 11.029703 8.8007812 11.095703 C 8.5727813 11.161703 8.3022344 11.195312 7.9902344 11.195312 C 7.5822344 11.195312 7.2333125 11.135625 6.9453125 11.015625 C 6.6573125 10.895625 6.420375 10.727719 6.234375 10.511719 C 6.048375 10.295719 5.9140781 10.040094 5.8300781 9.7460938 C 5.7460781 9.4460938 5.703125 9.119625 5.703125 8.765625 C 5.703125 8.357625 5.761 8.003125 5.875 7.703125 C 5.995 7.397125 6.1479844 7.1415 6.3339844 6.9375 C 6.5259844 6.7335 6.7424219 6.5842813 6.9824219 6.4882812 C 7.2284219 6.3862812 7.4802812 6.3359375 7.7382812 6.3359375 z M 7.7460938 6.8574219 C 7.5360938 6.8574219 7.3476875 6.8984219 7.1796875 6.9824219 C 7.0176875 7.0664219 6.8740469 7.1802188 6.7480469 7.3242188 C 6.6280469 7.4622188 6.5309844 7.6245469 6.4589844 7.8105469 C 6.3929844 7.9965469 6.35575 8.1924844 6.34375 8.3964844 L 9.0078125 8.3964844 C 8.9958125 7.9104844 8.8800625 7.5317188 8.6640625 7.2617188 C 8.4480625 6.9917187 8.1420938 6.8574219 7.7460938 6.8574219 z M 11.945312 8.8417969 L 12.212891 8.8417969 L 12.212891 12.896484 L 11.833984 12.896484 L 11.833984 9.421875 C 11.791084 9.468675 11.734262 9.5157063 11.664062 9.5664062 C 11.597762 9.6171063 11.521347 9.66805 11.435547 9.71875 C 11.349747 9.76555 11.259616 9.812575 11.166016 9.859375 C 11.072416 9.902275 10.978366 9.9375437 10.884766 9.9648438 L 10.773438 9.671875 C 11.007438 9.5899751 11.217091 9.4880813 11.400391 9.3632812 C 11.583691 9.2345813 11.765913 9.0601969 11.945312 8.8417969 z "
     id="path4" />
</svg>

<svg xmlns="http://www.w3.org/2000/svg" viewBox="0 0 16 16">
 <path d="m 1.6 0 c -0.886 0 -1.6 0.713 -1.6 1.6 l 0 12.801 c 0 0.886 0.713 1.6 1.6 1.6 l 12.801 0 c 0.886 0 1.6 -0.713 1.6 -1.6 l 0 -12.801 c 0 -0.886 -0.713 -1.6 -1.6 -1.6 l -12.801 0 z m 2.188 4.859 l 0.611 0 l 0 6.236 l -0.611 0 l 0 -6.236 z m 3.951 1.477 c 0.57 0 1.023 0.185 1.359 0.557 c 0.342 0.372 0.512 0.945 0.512 1.719 c 0 0.048 -0.002 0.097 -0.008 0.145 c 0 0.048 -0.004 0.093 -0.01 0.135 l -3.268 0 c 0.018 0.57 0.16 1.01 0.424 1.314 c 0.264 0.306 0.684 0.459 1.26 0.459 c 0.318 0 0.57 -0.03 0.756 -0.09 c 0.186 -0.06 0.322 -0.11 0.406 -0.152 l 0.107 0.504 c -0.084 0.048 -0.243 0.104 -0.477 0.17 c -0.228 0.066 -0.499 0.1 -0.811 0.1 c -0.408 0 -0.757 -0.06 -1.045 -0.18 c -0.288 -0.12 -0.525 -0.288 -0.711 -0.504 c -0.186 -0.216 -0.32 -0.472 -0.404 -0.766 c -0.084 -0.3 -0.127 -0.626 -0.127 -0.98 c 0 -0.408 0.058 -0.762 0.172 -1.063 c 0.12 -0.306 0.273 -0.562 0.459 -0.766 c 0.192 -0.204 0.408 -0.353 0.648 -0.449 c 0.246 -0.102 0.498 -0.152 0.756 -0.152 z m 0.008 0.521 c -0.21 0 -0.398 0.041 -0.566 0.125 c -0.162 0.084 -0.306 0.198 -0.432 0.342 c -0.12 0.138 -0.217 0.3 -0.289 0.486 c -0.066 0.186 -0.103 0.382 -0.115 0.586 l 2.664 0 c -0.012 -0.486 -0.128 -0.865 -0.344 -1.135 c -0.216 -0.27 -0.522 -0.404 -0.918 -0.404 z m 4.199 1.984 l 0.268 0 l 0 4.055 l -0.379 0 l 0 -3.475 c -0.043 0.047 -0.1 0.094 -0.17 0.145 c -0.066 0.051 -0.143 0.102 -0.229 0.152 c -0.086 0.047 -0.176 0.094 -0.27 0.141 c -0.094 0.043 -0.188 0.078 -0.281 0.105 l -0.111 -0.293 c 0.234 -0.082 0.444 -0.184 0.627 -0.309 c 0.183 -0.129 0.366 -0.303 0.545 -0.521 z" style="fill:#353535;fill-opacity:1"/>
</svg>
